docs/science/organic/InDraw250714-2002.svg

<svg xmlns="http://www.w3.org/2000/svg" xmlns:xlink="http://www.w3.org/1999/xlink" width="1665" height="279" x="0" y="0" version="1.1" viewBox="421 554 1665 279"><g><g><rect width="1665" height="279" x="421" y="554" fill="none" stroke="none"/><rect width="1665" height="279" x="421" y="554" fill="none" fill-opacity="1" stroke="none"/><g><g><text x="566.367" y="688.163" fill="#000" stroke="none" dominant-baseline="alphabetic" font-family="Arial" font-size="35pt" font-style="normal" font-weight="normal" text-anchor="middle" text-decoration="normal" transform="scale(1,1)">C</text><text x="493.946" y="687.163" fill="#000" stroke="none" dominant-baseline="alphabetic" font-family="Arial" font-size="35pt" font-style="normal" font-weight="normal" text-anchor="start" text-decoration="normal" transform="scale(1,1)">H</text><text x="527.643" y="670.163" fill="#000" stroke="none" dominant-baseline="hanging" font-family="Arial" font-size="28pt" font-style="normal" font-weight="normal" text-anchor="start" text-decoration="normal" transform="scale(1,1)">3</text></g><g><text x="649.311" y="688.163" fill="#000" stroke="none" dominant-baseline="alphabetic" font-family="Arial" font-size="35pt" font-style="normal" font-weight="normal" text-anchor="middle" text-decoration="normal" transform="scale(1,1)">C</text></g><g><path fill="none" stroke="#111" stroke-linecap="round" stroke-linejoin="round" stroke-miterlimit="10" stroke-width="3.02" d="M 586.3665152 670.1626368000001 L 630.3105151999999 670.1626368000001" paint-order="fill stroke markers" transform="scale(1,1)"/></g><g><text x="649.311" y="771.107" fill="#000" stroke="none" dominant-baseline="alphabetic" font-family="Arial" font-size="35pt" font-style="normal" font-weight="normal" text-anchor="middle" text-decoration="normal" transform="scale(1,1)">O</text><text x="668.025" y="770.107" fill="#000" stroke="none" dominant-baseline="alphabetic" font-family="Arial" font-size="35pt" font-style="normal" font-weight="normal" text-anchor="start" text-decoration="normal" transform="scale(1,1)">H</text></g><g><path fill="none" stroke="#111" stroke-linecap="round" stroke-linejoin="round" stroke-miterlimit="10" stroke-width="3.02" d="M 649.3105151999999 691.9626368000002 L 649.3105151999999 731.3066368000001" paint-order="fill stroke markers" transform="scale(1,1)"/></g><g><text x="732.255" y="688.163" fill="#000" stroke="none" dominant-baseline="alphabetic" font-family="Arial" font-size="35pt" font-style="normal" font-weight="normal" text-anchor="middle" text-decoration="normal" transform="scale(1,1)">C</text><text x="749.103" y="688.163" fill="#000" stroke="none" dominant-baseline="alphabetic" font-family="Arial" font-size="35pt" font-style="normal" font-weight="normal" text-anchor="start" text-decoration="normal" transform="scale(1,1)">OOH</text></g><g><path fill="none" stroke="#111" stroke-linecap="round" stroke-linejoin="round" stroke-miterlimit="10" stroke-width="3.02" d="M 669.3105151999999 670.1626368000001 L 711.1073152 670.1626368000001" paint-order="fill stroke markers" transform="scale(1,1)"/></g><g><text x="649.311" y="604.219" fill="#000" stroke="none" dominant-baseline="alphabetic" font-family="Arial" font-size="35pt" font-style="normal" font-weight="normal" text-anchor="middle" text-decoration="normal" transform="scale(1,1)">H</text></g><g><path fill="none" stroke="#111" stroke-linecap="round" stroke-linejoin="round" stroke-miterlimit="10" stroke-width="3.02" d="M 649.3105151999999 648.3626368000001 L 649.3105151999999 607.9186368" paint-order="fill stroke markers" transform="scale(1,1)"/></g><g><text x="1405.503" y="683.211" fill="#000" stroke="none" dominant-baseline="alphabetic" font-family="Arial" font-size="35pt" font-style="normal" font-weight="normal" text-anchor="middle" text-decoration="normal" transform="scale(1,1)">O</text></g><g><text x="1488.447" y="683.211" fill="#000" stroke="none" dominant-baseline="alphabetic" font-family="Arial" font-size="35pt" font-style="normal" font-weight="normal" text-anchor="middle" text-decoration="normal" transform="scale(1,1)">C</text></g><g><path fill="none" stroke="#111" stroke-linecap="round" stroke-linejoin="round" stroke-miterlimit="10" stroke-width="3.02" d="M 1427.0026688 665.21088 L 1469.4466688 665.21088" paint-order="fill stroke markers" transform="scale(1,1)"/></g><g><text x="1488.447" y="766.155" fill="#000" stroke="none" dominant-baseline="alphabetic" font-family="Arial" font-size="35pt" font-style="normal" font-weight="normal" text-anchor="middle" text-decoration="normal" transform="scale(1,1)">C</text><text x="1505.822" y="765.155" fill="#000" stroke="none" dominant-baseline="alphabetic" font-family="Arial" font-size="35pt" font-style="normal" font-weight="normal" text-anchor="start" text-decoration="normal" transform="scale(1,1)">H</text><text x="1539.518" y="748.155" fill="#000" stroke="none" dominant-baseline="hanging" font-family="Arial" font-size="28pt" font-style="normal" font-weight="normal" text-anchor="start" text-decoration="normal" transform="scale(1,1)">3</text></g><g><path fill="none" stroke="#111" stroke-linecap="round" stroke-linejoin="round" stroke-miterlimit="10" stroke-width="3.02" d="M 1488.4466688 687.01088 L 1488.4466688 726.35488" paint-order="fill stroke markers" transform="scale(1,1)"/></g><g><text x="1488.447" y="599.267" fill="#000" stroke="none" dominant-baseline="alphabetic" font-family="Arial" font-size="35pt" font-style="normal" font-weight="normal" text-anchor="middle" text-decoration="normal" transform="scale(1,1)">H</text></g><g><path fill="none" stroke="#111" stroke-linecap="round" stroke-linejoin="round" stroke-miterlimit="10" stroke-width="3.02" d="M 1488.4466688 643.41088 L 1488.4466688 602.96688" paint-order="fill stroke markers" transform="scale(1,1)"/></g><g><text x="1571.391" y="683.211" fill="#000" stroke="none" dominant-baseline="alphabetic" font-family="Arial" font-size="35pt" font-style="normal" font-weight="normal" text-anchor="middle" text-decoration="normal" transform="scale(1,1)">C</text></g><g><path fill="none" stroke="#111" stroke-linecap="round" stroke-linejoin="round" stroke-miterlimit="10" stroke-width="3.02" d="M 1508.4466688 665.21088 L 1552.3906688 665.21088" paint-order="fill stroke markers" transform="scale(1,1)"/></g><g><text x="1322.559" y="682.211" fill="#000" stroke="none" dominant-baseline="alphabetic" font-family="Arial" font-size="35pt" font-style="normal" font-weight="normal" text-anchor="middle" text-decoration="normal" transform="scale(1,1)">H</text></g><g><path fill="none" stroke="#111" stroke-linecap="round" stroke-linejoin="round" stroke-miterlimit="10" stroke-width="3.02" d="M 1385.0026688 665.21088 L 1342.5586688 665.21088" paint-order="fill stroke markers" transform="scale(1,1)"/></g><g><text x="1571.391" y="600.267" fill="#000" stroke="none" dominant-baseline="alphabetic" font-family="Arial" font-size="35pt" font-style="normal" font-weight="normal" text-anchor="middle" text-decoration="normal" transform="scale(1,1)">O</text></g><g><path fill="none" stroke="#111" stroke-linecap="round" stroke-linejoin="round" stroke-miterlimit="10" stroke-width="3.02" d="M 1576.367520651852 643.41088 L 1576.367520651852 604.0668800000001 M 1566.413816948148 643.41088 L 1566.413816948148 604.0668800000001" paint-order="fill stroke markers" transform="scale(1,1)"/></g><g><text x="1654.335" y="683.211" fill="#000" stroke="none" dominant-baseline="alphabetic" font-family="Arial" font-size="35pt" font-style="normal" font-weight="normal" text-anchor="middle" text-decoration="normal" transform="scale(1,1)">O</text><text x="1673.049" y="682.211" fill="#000" stroke="none" dominant-baseline="alphabetic" font-family="Arial" font-size="35pt" font-style="normal" font-weight="normal" text-anchor="start" text-decoration="normal" transform="scale(1,1)">H</text></g><g><path fill="none" stroke="#111" stroke-linecap="round" stroke-linejoin="round" stroke-miterlimit="10" stroke-width="3.02" d="M 1591.3906688 665.21088 L 1633.8346688000001 665.21088" paint-order="fill stroke markers" transform="scale(1,1)"/></g><g><path fill="none" stroke="none" transform="scale(1,1)"/><path fill="none" stroke="#000" stroke-linejoin="round" stroke-miterlimit="10" stroke-width="3.023" d="M 1383.9047619047622 561.4285714285716 L 1369.4285714285718 561.4285714285716 M 1369.4285714285718 561.4285714285716 L 1369.4285714285718 778.5714285714287 M 1369.4285714285718 778.5714285714287 L 1383.9047619047622 778.5714285714287" paint-order="fill stroke markers" transform="scale(1,1)"/></g><g><path fill="none" stroke="none" transform="scale(1,1)"/><path fill="none" stroke="#000" stroke-linejoin="round" stroke-miterlimit="10" stroke-width="3.023" d="M 1602.666666666667 778.5714285714287 L 1617.1428571428573 778.5714285714287 M 1617.1428571428573 778.5714285714287 L 1617.1428571428573 561.4285714285716 M 1617.1428571428573 561.4285714285716 L 1602.666666666667 561.4285714285716" paint-order="fill stroke markers" transform="scale(1,1)"/></g><g><text x="1634.857" y="811.429" fill="#111" stroke="none" dominant-baseline="alphabetic" font-family="Arial" font-size="39.497" font-style="normal" font-weight="400" text-anchor="start" text-decoration="normal" transform="scale(1,1)">n</text></g><g><path fill="none" stroke="#000" stroke-miterlimit="10" stroke-width=".309" d="M 926.310500026158 670.7142857142858 L 1221.7985000261579 670.7142857142858" paint-order="fill stroke markers" transform="scale(1,1)"/></g><g><path fill="#000" stroke="#000" stroke-miterlimit="10" stroke-width=".309" d="M 1221.798500026158 670.7142857142858 L 1218.2069194715832 664.4934857142857 L 1237.350500026158 670.7142857142858 L 1218.2069194715832 676.9350857142858 Z" paint-order="stroke fill markers" transform="scale(1,1)"/></g><g><text x="1852.179" y="687.857" fill="#000" stroke="none" dominant-baseline="alphabetic" font-family="'Times New Roman'" font-size="47.397" font-style="normal" font-weight="400" text-anchor="start" text-decoration="normal" transform="scale(1,1)">(</text><text x="1867.938" y="687.857" fill="#000" stroke="none" dominant-baseline="alphabetic" font-family="'Times New Roman'" font-size="47.397" font-style="normal" font-weight="400" text-anchor="start" text-decoration="normal" transform="scale(1,1)">n</text><text x="1891.644" y="687.857" fill="#000" stroke="none" dominant-baseline="alphabetic" font-family="'Times New Roman'" font-size="47.397" font-style="normal" font-weight="400" text-anchor="start" text-decoration="normal" transform="scale(1,1)">-</text><text x="1907.425" y="687.857" fill="#000" stroke="none" dominant-baseline="alphabetic" font-family="'Times New Roman'" font-size="47.397" font-style="normal" font-weight="400" text-anchor="start" text-decoration="normal" transform="scale(1,1)">1</text><text x="1931.108" y="687.857" fill="#000" stroke="none" dominant-baseline="alphabetic" font-family="'Times New Roman'" font-size="47.397" font-style="normal" font-weight="400" text-anchor="start" text-decoration="normal" transform="scale(1,1)">)</text></g><g><text x="2059.143" y="693.761" fill="#000" stroke="none" dominant-baseline="alphabetic" font-family="Arial" font-size="35pt" font-style="normal" font-weight="normal" text-anchor="middle" text-decoration="normal" transform="scale(1,1)">O</text><text x="1980.416" y="692.761" fill="#000" stroke="none" dominant-baseline="alphabetic" font-family="Arial" font-size="35pt" font-style="normal" font-weight="normal" text-anchor="start" text-decoration="normal" transform="scale(1,1)">H</text><text x="2014.113" y="675.761" fill="#000" stroke="none" dominant-baseline="hanging" font-family="Arial" font-size="28pt" font-style="normal" font-weight="normal" text-anchor="start" text-decoration="normal" transform="scale(1,1)">2</text></g><g><text x="1766.471" y="697.929" fill="#000" stroke="none" dominant-baseline="alphabetic" font-family="Arial" font-size="55.296" font-style="normal" font-weight="400" text-anchor="start" text-decoration="normal" transform="scale(1,1)">+</text></g><g><text x="436.286" y="688.571" fill="#000" stroke="none" dominant-baseline="alphabetic" font-family="'Times New Roman'" font-size="47.397" font-style="normal" font-weight="400" text-anchor="start" text-decoration="normal" transform="scale(1,1)">n</text></g></g></g></g></svg>

<svg xmlns="http://www.w3.org/2000/svg" viewBox="421 554 1665 279" xmlns:xlink="http://www.w3.org/1999/xlink"><defs><path fill="none" d="M421 554h1665v279H421z" id="a"/></defs><use href="#a"/><use href="#a"/><text x="566.37" y="688.16" dominant-baseline="alphabetic" font-family="Arial" font-size="35pt" text-anchor="middle" text-decoration="normal">C</text><text x="493.95" y="687.16" dominant-baseline="alphabetic" font-family="Arial" font-size="35pt" text-decoration="normal">H</text><text x="527.64" y="670.16" dominant-baseline="hanging" font-family="Arial" font-size="28pt" text-decoration="normal">3</text><text x="649.31" y="688.16" dominant-baseline="alphabetic" font-family="Arial" font-size="35pt" text-anchor="middle" text-decoration="normal">C</text><path fill="none" stroke="#111" stroke-linecap="round" stroke-linejoin="round" stroke-miterlimit="10" stroke-width="3.02" d="M586.367 670.163h43.944" paint-order="fill stroke markers"/><text x="649.31" y="771.11" dominant-baseline="alphabetic" font-family="Arial" font-size="35pt" text-anchor="middle" text-decoration="normal">O</text><text x="668.02" y="770.11" dominant-baseline="alphabetic" font-family="Arial" font-size="35pt" text-decoration="normal">H</text><path fill="none" stroke="#111" stroke-linecap="round" stroke-linejoin="round" stroke-miterlimit="10" stroke-width="3.02" d="M649.31 691.963v39.344" paint-order="fill stroke markers"/><text x="732.25" y="688.16" dominant-baseline="alphabetic" font-family="Arial" font-size="35pt" text-anchor="middle" text-decoration="normal">C</text><text x="749.1" y="688.16" dominant-baseline="alphabetic" font-family="Arial" font-size="35pt" text-decoration="normal">OOH</text><path fill="none" stroke="#111" stroke-linecap="round" stroke-linejoin="round" stroke-miterlimit="10" stroke-width="3.02" d="M669.31 670.163h41.797" paint-order="fill stroke markers"/><text x="649.31" y="604.22" dominant-baseline="alphabetic" font-family="Arial" font-size="35pt" text-anchor="middle" text-decoration="normal">H</text><path fill="none" stroke="#111" stroke-linecap="round" stroke-linejoin="round" stroke-miterlimit="10" stroke-width="3.02" d="M649.31 648.363v-40.444" paint-order="fill stroke markers"/><text x="1405.5" y="683.21" dominant-baseline="alphabetic" font-family="Arial" font-size="35pt" text-anchor="middle" text-decoration="normal">O</text><text x="1488.45" y="683.21" dominant-baseline="alphabetic" font-family="Arial" font-size="35pt" text-anchor="middle" text-decoration="normal">C</text><path fill="none" stroke="#111" stroke-linecap="round" stroke-linejoin="round" stroke-miterlimit="10" stroke-width="3.02" d="M1427.003 665.21h42.444" paint-order="fill stroke markers"/><text x="1488.45" y="766.15" dominant-baseline="alphabetic" font-family="Arial" font-size="35pt" text-anchor="middle" text-decoration="normal">C</text><text x="1505.82" y="765.15" dominant-baseline="alphabetic" font-family="Arial" font-size="35pt" text-decoration="normal">H</text><text x="1539.52" y="748.15" dominant-baseline="hanging" font-family="Arial" font-size="28pt" text-decoration="normal">3</text><path fill="none" stroke="#111" stroke-linecap="round" stroke-linejoin="round" stroke-miterlimit="10" stroke-width="3.02" d="M1488.447 687.01v39.345" paint-order="fill stroke markers"/><text x="1488.45" y="599.27" dominant-baseline="alphabetic" font-family="Arial" font-size="35pt" text-anchor="middle" text-decoration="normal">H</text><path fill="none" stroke="#111" stroke-linecap="round" stroke-linejoin="round" stroke-miterlimit="10" stroke-width="3.02" d="M1488.447 643.41v-40.443" paint-order="fill stroke markers"/><text x="1571.39" y="683.21" dominant-baseline="alphabetic" font-family="Arial" font-size="35pt" text-anchor="middle" text-decoration="normal">C</text><path fill="none" stroke="#111" stroke-linecap="round" stroke-linejoin="round" stroke-miterlimit="10" stroke-width="3.02" d="M1508.447 665.21h43.944" paint-order="fill stroke markers"/><text x="1322.56" y="682.21" dominant-baseline="alphabetic" font-family="Arial" font-size="35pt" text-anchor="middle" text-decoration="normal">H</text><path fill="none" stroke="#111" stroke-linecap="round" stroke-linejoin="round" stroke-miterlimit="10" stroke-width="3.02" d="M1385.003 665.21h-42.444" paint-order="fill stroke markers"/><text x="1571.39" y="600.27" dominant-baseline="alphabetic" font-family="Arial" font-size="35pt" text-anchor="middle" text-decoration="normal">O</text><path fill="none" stroke="#111" stroke-linecap="round" stroke-linejoin="round" stroke-miterlimit="10" stroke-width="3.02" d="M1576.368 643.41v-39.343m-9.954 39.344v-39.344" paint-order="fill stroke markers"/><text x="1654.34" y="683.21" dominant-baseline="alphabetic" font-family="Arial" font-size="35pt" text-anchor="middle" text-decoration="normal">O</text><text x="1673.05" y="682.21" dominant-baseline="alphabetic" font-family="Arial" font-size="35pt" text-decoration="normal">H</text><path fill="none" stroke="#111" stroke-linecap="round" stroke-linejoin="round" stroke-miterlimit="10" stroke-width="3.02" d="M1591.39 665.21h42.445" paint-order="fill stroke markers"/><path fill="none" stroke="#000" stroke-linejoin="round" stroke-miterlimit="10" stroke-width="3.02" d="M1383.905 561.429h-14.476m0 0V778.57m0 0h14.476m218.762.001h14.476m0 0V561.43m0 0h-14.476" paint-order="fill stroke markers"/><text x="1634.86" y="811.43" fill="#111" dominant-baseline="alphabetic" font-family="Arial" font-size="39.5" font-weight="400" text-decoration="normal">n</text><path fill="none" stroke="#000" stroke-miterlimit="10" stroke-width="0.31" d="M926.31 670.714h295.49" paint-order="fill stroke markers"/><path stroke="#000" stroke-miterlimit="10" stroke-width="0.31" d="m1221.799 670.714-3.592-6.22 19.144 6.22-19.144 6.221Z" paint-order="stroke fill markers"/><text x="1852.18" y="687.86" dominant-baseline="alphabetic" font-family="'Times New Roman'" font-size="47.4" font-weight="400" text-decoration="normal">(</text><text x="1867.94" y="687.86" dominant-baseline="alphabetic" font-family="'Times New Roman'" font-size="47.4" font-weight="400" text-decoration="normal">n</text><text x="1891.64" y="687.86" dominant-baseline="alphabetic" font-family="'Times New Roman'" font-size="47.4" font-weight="400" text-decoration="normal">-</text><text x="1907.42" y="687.86" dominant-baseline="alphabetic" font-family="'Times New Roman'" font-size="47.4" font-weight="400" text-decoration="normal">1</text><text x="1931.11" y="687.86" dominant-baseline="alphabetic" font-family="'Times New Roman'" font-size="47.4" font-weight="400" text-decoration="normal">)</text><text x="2059.14" y="693.76" dominant-baseline="alphabetic" font-family="Arial" font-size="35pt" text-anchor="middle" text-decoration="normal">O</text><text x="1980.42" y="692.76" dominant-baseline="alphabetic" font-family="Arial" font-size="35pt" text-decoration="normal">H</text><text x="2014.11" y="675.76" dominant-baseline="hanging" font-family="Arial" font-size="28pt" text-decoration="normal">2</text><text x="1766.47" y="697.93" dominant-baseline="alphabetic" font-family="Arial" font-size="55.3" font-weight="400" text-decoration="normal">+</text><text x="436.29" y="688.57" dominant-baseline="alphabetic" font-family="'Times New Roman'" font-size="47.4" font-weight="400" text-decoration="normal">n</text></svg>
